X:171
T: SEHT DEN HIMMEL WIE HEITER
N: B0205
O: Europa, Mitteleuropa, Deutschland
R: Jahreszeiten - Lied, Fruehling, Erotik
M: 6/8
L: 1/8
K: G
 | d2ddBd | g3d3 |
e2egfe | d3B3 |
AB^cdef | d3z3 |
d2cBAG | e3c3 |
e2d^cBA | f3d3 |
g2dgdB | dcAG2z

@@@ Tune index: 1974
